X: 35455
T: Rowan Tree, The
R: reel
M: 4/4
K: Amixolydian
A>B||c3c c2B2|ce3e2a2|f3ef2a2|f3ee2A>B|
c3cc2B2|ce3f3e|ec3B3A|A4A2e2||
e2a2a3g|g2f2f2a2|e3f fedc|c4B2A>B|
c3c c2B2|ce3f3e|ec3B3A|A4A2||

